X:41
T:The Road to Lisdoonvarna
R:jig
O:Ireland
M:6/8
L:1/8
K:D
D |: "Em" E2 B B2 A | "G" B2   c d3  | "D" F2 A ABA | D2 E        FED |
     "Em" E2 B B2 A | "G" B2   c d3  | "A" cdc B2 A |1 "Em" B2 E E2 D :|2 "Em" B2 E E3 ||
     "Em" e2 f gfe  | "D/G" d2 B Bcd | "A" c2 A ABc | "G" d2   B   B3 |
     "Em" e2 f gfe  | "D/G" d2 B Bcd | "A" cdc B2 A |1 "Em" B2 E   E3 :|2 "Em" B2 E E2 |]
